X: 16
T: Merry Sisters Of Fate, The
Z: Thierry Masure
S: https://thesession.org/tunes/165#setting49734
R: reel
M: 4/4
L: 1/8
K: Edor
||:BE~E2 BdcA | BE~E2 dAFA | BE~E2 Bdce | dD~D2 FDFA :||
Beec d2ed | Beed BAFA | (3Bcd ec dfed | BABc dAFA |
Beec d2ed | Bdef gfed | Beec dfed | BABc dAFA ||
(3Bcd cd BFAd | BE~E2 BAFA | ~B3d BABc | dD~D2 FDFA |
(3Bcd cd BFAd | BE~E2 GFEF | DEFA dfag | fdec d2cA ||

%-------------------- TUNE SEPARATOR --------------------%

